packages/components/icon/src/assets/icons/dispute.svg

<svg width="24" height="24" viewBox="0 0 24 24" fill="none" xmlns="http://www.w3.org/2000/svg">
<path fill-rule="evenodd" clip-rule="evenodd" d="M11.9793 3C12.2397 3 12.4638 3.09401 12.6519 3.28202C12.8399 3.47004 12.9339 3.70144 12.9339 3.97624C14.7128 4.04855 16.3905 4.31611 17.9669 4.77893C18.155 4.83678 18.3394 4.95248 18.5201 5.12603C18.7009 5.29959 18.8275 5.4876 18.8998 5.69008L21.7634 13.782C21.8791 14.0857 21.937 14.4401 21.937 14.845C21.937 14.9897 21.9298 15.0981 21.9153 15.1705C21.7562 15.9225 21.3729 16.548 20.7655 17.047C20.1581 17.546 19.4566 17.7955 18.6612 17.7955C17.8657 17.7955 17.1606 17.546 16.546 17.047C15.9313 16.548 15.5444 15.9225 15.3853 15.1705C15.3709 15.1126 15.3636 15.0114 15.3636 14.8667C15.3636 14.4762 15.4287 14.1147 15.5589 13.782L18.1188 6.53616C18.1477 6.44938 18.1622 6.37707 18.1622 6.31921C18.1622 6.18905 18.1116 6.08058 18.0103 5.9938C17.9091 5.90702 17.7862 5.86364 17.6415 5.86364H12.9339V18.2944C14.7273 18.3667 16.4122 18.6343 17.9886 19.0971C18.1767 19.155 18.3357 19.249 18.4659 19.3791C18.5961 19.5093 18.6612 19.6322 18.6612 19.7479V20.1818H5.29752V19.7479C5.29752 19.6322 5.3626 19.5093 5.49277 19.3791C5.62293 19.249 5.78202 19.155 5.97004 19.0971C7.5465 18.6343 9.2314 18.3667 11.0248 18.2944V5.86364H6.31715C6.17252 5.86364 6.04959 5.90702 5.94835 5.9938C5.84711 6.08058 5.79649 6.18905 5.79649 6.31921C5.79649 6.37707 5.81095 6.44938 5.83988 6.53616L8.39979 13.782C8.5155 14.0857 8.57335 14.4401 8.57335 14.845C8.57335 14.9897 8.56612 15.0981 8.55165 15.1705C8.39256 15.9225 8.0093 16.548 7.40186 17.047C6.79442 17.546 6.09298 17.7955 5.29752 17.7955C4.50206 17.7955 3.79701 17.546 3.18233 17.047C2.56766 16.548 2.18079 15.9225 2.02169 15.1705C2.00723 15.1126 2 15.0114 2 14.8667C2 14.4762 2.06508 14.1147 2.19525 13.782L5.05888 5.69008C5.1312 5.4876 5.25413 5.29959 5.42769 5.12603C5.60124 4.95248 5.78202 4.83678 5.97004 4.77893C7.51757 4.31611 9.20247 4.04132 11.0248 3.95455C11.0248 3.69421 11.1188 3.47004 11.3068 3.28202C11.4948 3.09401 11.719 3 11.9793 3ZM5.29752 7.8595L2.95455 14.4545H7.6188L5.29752 7.8595ZM18.6612 7.8595L16.3182 14.4545H20.9824L18.6612 7.8595Z" fill="currentColor"/>
</svg>

<svg viewBox="0 0 24 24" fill="none" xmlns="http://www.w3.org/2000/svg"><path fill-rule="evenodd" clip-rule="evenodd" d="M11.98 3c.26 0 .484.094.672.282.188.188.282.42.282.694 1.779.073 3.457.34 5.033.803.188.058.372.173.553.347.18.174.308.362.38.564l2.863 8.092c.116.304.174.658.174 1.063 0 .145-.007.253-.022.325a3.235 3.235 0 0 1-1.15 1.877 3.219 3.219 0 0 1-2.104.748c-.795 0-1.5-.249-2.115-.748a3.215 3.215 0 0 1-1.16-1.877 1.442 1.442 0 0 1-.022-.303c0-.39.065-.752.195-1.085l2.56-7.246a.715.715 0 0 0 .043-.217.41.41 0 0 0-.152-.325.547.547 0 0 0-.369-.13h-4.707v12.43c1.793.073 3.478.34 5.055.803.188.058.347.152.477.282.13.13.195.253.195.369v.434H5.298v-.434c0-.116.065-.239.195-.369s.289-.224.477-.282c1.577-.463 3.261-.73 5.055-.803V5.864H6.317a.547.547 0 0 0-.369.13.411.411 0 0 0-.152.325c0 .058.015.13.044.217l2.56 7.246c.115.304.173.658.173 1.063 0 .145-.007.253-.021.325a3.234 3.234 0 0 1-1.15 1.877 3.219 3.219 0 0 1-2.104.748 3.263 3.263 0 0 1-2.116-.748 3.215 3.215 0 0 1-1.16-1.877A1.438 1.438 0 0 1 2 14.867c0-.39.065-.752.195-1.085L5.06 5.69a1.52 1.52 0 0 1 .369-.564 1.31 1.31 0 0 1 .542-.347c1.548-.463 3.232-.738 5.055-.824a.92.92 0 0 1 .282-.673.918.918 0 0 1 .671-.282ZM5.297 7.86l-2.343 6.594h4.664L5.298 7.86Zm13.363 0-2.343 6.594h4.664l-2.32-6.595Z" fill="currentColor"/></svg>
